icon-themes/sifr_svg/cmd/lc_insertobject.svg

<svg viewBox="0 0 24 24" xmlns="http://www.w3.org/2000/svg"><path d="m12 2a10 10 0 0 0 -10 10 10 10 0 0 0 10 10 10 10 0 0 0 4-.847656v-1.152344h-3v-4h3v-2-1h4v3h1.160156a10 10 0 0 0 .839844-4 10 10 0 0 0 -10-10zm5 12v3h-3v2h3v3h2v-3h3v-2h-3v-3z" fill="#555753"/></svg>

<svg xmlns="http://www.w3.org/2000/svg" viewBox="0 0 24 24">
  <path
     style="fill:#555753"
     d="M 12 2 A 10 10 0 0 0 2 12 A 10 10 0 0 0 12 22 A 10 10 0 0 0 16 21.152344 L 16 20 L 13 20 L 13 16 L 16 16 L 16 14 L 16 13 L 20 13 L 20 16 L 21.160156 16 A 10 10 0 0 0 22 12 A 10 10 0 0 0 12 2 z M 17 14 L 17 17 L 14 17 L 14 19 L 17 19 L 17 22 L 19 22 L 19 19 L 22 19 L 22 17 L 19 17 L 19 14 L 17 14 z "
     />
</svg>
